X: 1
T: Went Running up the stairs
T: Polska i G
C: Composer unknown
O: Sweden
S: David Kaynor
R: polska
S: https://natunelist.net/polska-in-g-david-kaynor-went-running-up-the-stairs/
Z: 2021 John Chambers <jc:trillian.mit.edu>
M: 2/4
L: 1/16
K: G
|: D4 G4 B4 | A3G FGAB c2c2 | B2cB A2BA G2AG | F2GF E2FE D4 |
|  D4 G4 B4 | A3G FGAB c2c2 | B2cB A2BA G2AG | FGAF G8 :|
|: d3B B2B2 B2AB | c3A A2A2 A2GA | B2AB c2cA | B2BG | FGAF G2GD B,2D2 |
|  d3B B2B2 B2AB | c3A A2A2 A2GA | B2AB c2cA | B2BG | FGAF G8 :|
